; generated by PrusaSlicer 2.0.0+win64 on 2019-09-10 at 22:23:38

; 

; external perimeters extrusion width = 0.45mm
; perimeters extrusion width = 0.45mm
; infill extrusion width = 0.45mm
; solid infill extrusion width = 0.45mm
; top infill extrusion width = 0.40mm
; first layer extrusion width = 0.42mm

M73 P0 R204
M73 Q0 S205
M201 X1000 Y1000 Z1000 E5000 ; sets maximum accelerations, mm/sec^2
M203 X200 Y200 Z12 E120 ; sets maximum feedrates, mm/sec
M204 P1250 R1250 T1250 ; sets acceleration (P, T) and retract acceleration (R), mm/sec^2
M205 X8.00 Y8.00 Z0.40 E1.50 ; sets the jerk limits, mm/sec
M205 S0 T0 ; sets the minimum extruding and travel feed rate, mm/sec
M107 ; disable fan
M115 U3.7.2 ; tell printer latest fw version
G90 ; use absolute coordinates
M83 ; extruder relative mode
M104 S215 ; set extruder temp
M140 S60 ; set bed temp
M190 S60 ; wait for bed temp
M109 S215 ; wait for extruder temp
G28 W ; home all without mesh bed level
G80 ; mesh bed leveling
G1 Y-3.0 F1000.0 ; go outside print area
G92 E0.0
G1 X60.0 E9.0 F1000.0 ; intro line
M73 Q0 S205
M73 P0 R204
G1 X100.0 E12.5 F1000.0 ; intro line
G92 E0.0
M221 S95
M900 K30 ; Filament gcode
G21 ; set units to millimeters
G90 ; use absolute coordinates
M83 ; use relative distances for extrusion
;BEFORE_LAYER_CHANGE
G92 E0.0
;0.2


G1 E-0.80000 F2100.00000 ; retract
G1 Z0.600 F10800.000 ; lift Z
;AFTER_LAYER_CHANGE
;0.2
G1 X83.219 Y64.407 ; move to first skirt point
G1 Z0.200 ; restore layer Z
G1 E0.80000 F2100.00000 ; unretract
M204 S1000 ; adjust acceleration
G1 F1200
G1 X83.959 Y63.594 E0.03448 ; skirt
G1 X84.582 Y63.100 E0.02492 ; skirt
G1 X85.192 Y62.783 E0.02156 ; skirt
G1 X123.289 Y47.003 E1.29292 ; skirt
G1 X124.142 Y46.756 E0.02784 ; skirt
G1 X125.160 Y46.701 E0.03197 ; skirt
G1 X125.926 Y46.768 E0.02411 ; skirt
G1 X126.703 Y46.999 E0.02542 ; skirt
G1 X164.801 Y62.780 E1.29294 ; skirt
G1 X165.581 Y63.210 E0.02794 ; skirt
G1 X166.341 Y63.894 E0.03204 ; skirt
G1 X166.833 Y64.481 E0.02401 ; skirt
G1 X167.217 Y65.191 E0.02533 ; skirt
G1 X182.998 Y103.289 E1.29296 ; skirt
G1 X183.244 Y104.142 E0.02782 ; skirt
G1 X183.299 Y105.165 E0.03215 ; skirt
G1 X183.232 Y105.928 E0.02401 ; skirt
G1 X183.001 Y106.704 E0.02539 ; skirt
G1 X167.220 Y144.801 E1.29291 ; skirt
G1 X166.790 Y145.581 E0.02794 ; skirt
G1 X166.107 Y146.341 E0.03205 ; skirt
G1 X165.521 Y146.832 E0.02396 ; skirt
G1 X164.809 Y147.217 E0.02538 ; skirt
G1 X126.711 Y162.998 E1.29296 ; skirt
G1 X125.859 Y163.244 E0.02782 ; skirt
G1 X124.835 Y163.299 E0.03215 ; skirt
G1 X124.072 Y163.232 E0.02401 ; skirt
G1 X123.296 Y163.001 E0.02539 ; skirt
G1 X85.199 Y147.220 E1.29291 ; skirt
G1 X84.409 Y146.782 E0.02835 ; skirt
G1 X83.595 Y146.042 E0.03450 ; skirt
G1 X83.154 Y145.501 E0.02187 ; skirt
G1 X82.783 Y144.809 E0.02462 ; skirt
G1 X67.001 Y106.708 E1.29306 ; skirt
G1 X66.753 Y105.840 E0.02830 ; skirt
G1 X66.701 Y104.743 E0.03442 ; skirt
G1 X66.773 Y104.049 E0.02189 ; skirt
G1 X66.999 Y103.297 E0.02462 ; skirt
G1 X82.781 Y65.196 E1.29306 ; skirt
G1 X83.190 Y64.460 E0.02642 ; skirt
G1 F8640
G1 X83.959 Y63.594 E-0.26743 ; wipe and retract
G1 X84.582 Y63.100 E-0.18353 ; wipe and retract
G1 X85.192 Y62.783 E-0.15874 ; wipe and retract
G1 X85.794 Y62.534 E-0.15029 ; wipe and retract
G1 E-0.04000 F2100.00000 ; retract
G1 Z0.800 F10800.000 ; lift Z
G1 X124.585 Y154.892 ; move to first perimeter point
G1 Z0.200 ; restore layer Z
G1 E0.80000 F2100.00000 ; unretract
G1 F1200
G1 X125.414 Y154.892 E0.02599 ; perimeter
G1 X125.472 Y155.293 E0.01272 ; perimeter
G1 X125.596 Y155.604 E0.01048 ; perimeter
G1 X125.733 Y155.824 E0.00813 ; perimeter
G1 X126.005 Y156.109 E0.01238 ; perimeter
G1 X126.071 Y156.155 E0.00251 ; perimeter
G1 X125.783 Y159.564 E0.10726 ; perimeter
G1 X125.710 Y159.701 E0.00486 ; perimeter
G1 X125.562 Y159.818 E0.00592 ; perimeter
G1 X125.348 Y159.910 E0.00730 ; perimeter
G1 X125.114 Y159.950 E0.00744 ; perimeter
G1 X124.890 Y159.950 E0.00703 ; perimeter
G1 X124.629 Y159.901 E0.00832 ; perimeter
G1 X124.437 Y159.816 E0.00658 ; perimeter
G1 X124.294 Y159.705 E0.00568 ; perimeter
G1 X124.217 Y159.560 E0.00516 ; perimeter
G1 X123.928 Y156.147 E0.10739 ; perimeter
G1 X124.121 Y155.994 E0.00771 ; perimeter
G1 X124.292 Y155.788 E0.00840 ; perimeter
G1 X124.466 Y155.471 E0.01133 ; perimeter
G1 X124.562 Y155.142 E0.01076 ; perimeter
G1 X124.580 Y154.952 E0.00600 ; perimeter
G1 X124.210 Y154.515 F10800.000 ; move to first perimeter point
G1 F1200
G1 X125.790 Y154.515 E0.04955 ; perimeter
G1 X125.790 Y154.856 E0.01070 ; perimeter
G1 X125.839 Y155.195 E0.01074 ; perimeter
G1 X125.934 Y155.433 E0.00802 ; perimeter
G1 X126.033 Y155.592 E0.00588 ; perimeter
G1 X126.252 Y155.821 E0.00995 ; perimeter
G1 X126.467 Y155.954 E0.00792 ; perimeter
G1 X126.154 Y159.652 E0.11637 ; perimeter
G1 X126.075 Y159.846 E0.00657 ; perimeter
G1 X125.979 Y159.968 E0.00486 ; perimeter
G1 X125.766 Y160.138 E0.00855 ; perimeter
G1 X125.575 Y160.233 E0.00669 ; perimeter
G1 X125.437 Y160.277 E0.00453 ; perimeter
G1 X125.146 Y160.327 E0.00927 ; perimeter
G1 X124.856 Y160.327 E0.00911 ; perimeter
G1 X124.517 Y160.264 E0.01079 ; perimeter
G1 X124.242 Y160.143 E0.00942 ; perimeter
G1 X124.032 Y159.979 E0.00837 ; perimeter
G1 X123.936 Y159.865 E0.00466 ; perimeter
G1 X123.846 Y159.651 E0.00727 ; perimeter
G1 X123.534 Y155.954 E0.11633 ; perimeter
G1 X123.606 Y155.922 E0.00249 ; perimeter
G1 X123.856 Y155.723 E0.01001 ; perimeter
G1 X123.979 Y155.575 E0.00605 ; perimeter
G1 X124.116 Y155.326 E0.00890 ; perimeter
G1 X124.190 Y155.071 E0.00832 ; perimeter
G1 X124.210 Y154.575 E0.01558 ; perimeter
G1 X124.548 Y154.728 F10800.000 ; move inwards before travel
G1 F8640
G1 X125.790 Y154.515 E-0.36516 ; wipe and retract
G1 X125.790 Y154.856 E-0.07883 ; wipe and retract
G1 X125.839 Y155.195 E-0.07906 ; wipe and retract
G1 X125.934 Y155.433 E-0.05907 ; wipe and retract
G1 X126.033 Y155.592 E-0.04327 ; wipe and retract
G1 X126.252 Y155.821 E-0.07330 ; wipe and retract
G1 X126.467 Y155.954 E-0.05830 ; wipe and retract
G1 X126.466 Y155.967 E-0.00302 ; wipe and retract
G1 E-0.04000 F2100.00000 ; retract
G1 Z0.800 F10800.000 ; lift Z
G1 X125.934 Y156.431 ; move to first infill point
G1 Z0.200 ; restore layer Z
G1 E0.80000 F2100.00000 ; unretract
G1 F1200
G1 X124.809 Y155.306 E0.05260 ; infill
G1 X124.729 Y155.580 E0.00945 ; infill
G1 X124.655 Y155.714 E0.00505 ; infill
G1 X125.733 Y156.792 E0.05039 ; infill
G1 X125.690 Y157.311 E0.01719 ; infill
G1 X124.436 Y156.057 E0.05859 ; infill
G1 X124.320 Y156.198 E0.00603 ; infill
G1 X124.223 Y156.274 E0.00408 ; infill
G1 X124.235 Y156.418 E0.00478 ; infill
G1 X125.646 Y157.829 E0.06595 ; infill
G1 X125.602 Y158.347 E0.01719 ; infill
G1 X124.287 Y157.033 E0.06147 ; infill
G1 X124.339 Y157.647 E0.02037 ; infill
G1 X125.558 Y158.866 E0.05699 ; infill
G1 X125.514 Y159.384 E0.01719 ; infill
G1 X124.391 Y158.261 E0.05251 ; infill
G1 X124.443 Y158.875 E0.02037 ; infill
G1 X125.209 Y159.641 E0.03580 ; infill
G1 X125.085 Y159.667 E0.00418 ; infill
G1 X124.916 Y159.667 E0.00558 ; infill
G1 X124.713 Y159.629 E0.00681 ; infill
G1 X124.558 Y159.552 E0.00574 ; infill
G1 X124.309 Y159.303 E0.01163 ; infill
G1 F8640
G1 X124.558 Y159.552 E-0.08127 ; wipe and retract
G1 X124.713 Y159.629 E-0.04013 ; wipe and retract
G1 X124.916 Y159.667 E-0.04760 ; wipe and retract
G1 X125.085 Y159.667 E-0.03901 ; wipe and retract
G1 X125.209 Y159.641 E-0.02922 ; wipe and retract
G1 X124.443 Y158.875 E-0.25010 ; wipe and retract
G1 X124.391 Y158.261 E-0.14231 ; wipe and retract
G1 X124.790 Y158.660 E-0.13035 ; wipe and retract
G1 E-0.04000 F2100.00000 ; retract
G1 Z0.800 F10800.000 ; lift Z
G1 X123.027 Y152.243 ; move to first perimeter point
G1 Z0.200 ; restore layer Z
G1 E0.80000 F2100.00000 ; unretract
G1 F1200
G1 X122.826 Y149.761 E0.07809 ; perimeter
G1 X123.031 Y149.761 E0.00644 ; perimeter
G1 X123.318 Y149.731 E0.00905 ; perimeter
G1 X123.627 Y149.631 E0.01018 ; perimeter
G1 X123.894 Y149.482 E0.00959 ; perimeter
G1 X124.136 Y149.276 E0.00996 ; perimeter
G1 X124.340 Y149.013 E0.01043 ; perimeter
G1 X124.479 Y148.734 E0.00977 ; perimeter
G1 X124.562 Y148.438 E0.00966 ; perimeter
G1 X124.587 Y148.140 E0.00936 ; perimeter
G1 X125.413 Y148.140 E0.02589 ; perimeter
G1 X125.438 Y148.438 E0.00936 ; perimeter
G1 X125.518 Y148.724 E0.00934 ; perimeter
G1 X125.659 Y149.011 E0.01002 ; perimeter
G1 X125.865 Y149.276 E0.01049 ; perimeter
G1 X126.107 Y149.483 E0.00999 ; perimeter
G1 X126.383 Y149.636 E0.00992 ; perimeter
G1 X126.684 Y149.731 E0.00988 ; perimeter
G1 X126.969 Y149.761 E0.00900 ; perimeter
G1 X127.177 Y149.761 E0.00651 ; perimeter
G1 X126.983 Y152.260 E0.07860 ; perimeter
G1 X126.841 Y152.110 E0.00649 ; perimeter
G1 X126.471 Y151.904 E0.01328 ; perimeter
G1 X126.151 Y151.821 E0.01036 ; perimeter
G1 X123.843 Y151.821 E0.07237 ; perimeter
G1 X123.442 Y151.934 E0.01306 ; perimeter
G1 X123.157 Y152.116 E0.01061 ; perimeter
G1 X123.070 Y152.201 E0.00382 ; perimeter
G1 X122.956 Y153.077 F10800.000 ; move to first perimeter point
G1 F1200
G1 X122.859 Y152.967 E0.00459 ; perimeter
G1 X122.745 Y152.759 E0.00743 ; perimeter
G1 X122.672 Y152.527 E0.00765 ; perimeter
G1 X122.417 Y149.384 E0.09888 ; perimeter
G1 X123.011 Y149.384 E0.01863 ; perimeter
G1 X123.240 Y149.360 E0.00720 ; perimeter
G1 X123.476 Y149.284 E0.00778 ; perimeter
G1 X123.678 Y149.171 E0.00724 ; perimeter
G1 X123.861 Y149.014 E0.00758 ; perimeter
G1 X124.019 Y148.811 E0.00806 ; perimeter
G1 X124.126 Y148.598 E0.00746 ; perimeter
G1 X124.190 Y148.369 E0.00746 ; perimeter
G1 X124.210 Y148.148 E0.00695 ; perimeter
G1 X124.210 Y147.763 E0.01207 ; perimeter
G1 X125.790 Y147.763 E0.04954 ; perimeter
G1 X125.790 Y148.148 E0.01207 ; perimeter
G1 X125.811 Y148.369 E0.00695 ; perimeter
G1 X125.872 Y148.590 E0.00718 ; perimeter
G1 X125.981 Y148.810 E0.00771 ; perimeter
G1 X126.139 Y149.014 E0.00808 ; perimeter
G1 X126.323 Y149.171 E0.00759 ; perimeter
G1 X126.533 Y149.288 E0.00754 ; perimeter
G1 X126.761 Y149.360 E0.00750 ; perimeter
G1 X126.989 Y149.384 E0.00718 ; perimeter
G1 X127.584 Y149.384 E0.01866 ; perimeter
G1 X127.353 Y152.371 E0.09394 ; perimeter
G1 X127.302 Y152.624 E0.00810 ; perimeter
G1 X127.184 Y152.901 E0.00942 ; perimeter
G1 X127.047 Y153.069 E0.00680 ; perimeter
G1 X127.019 Y152.974 E0.00309 ; perimeter
G1 X126.860 Y152.679 E0.01052 ; perimeter
G1 X126.607 Y152.411 E0.01157 ; perimeter
G1 X126.330 Y152.257 E0.00993 ; perimeter
G1 X126.103 Y152.198 E0.00734 ; perimeter
G1 X123.895 Y152.198 E0.06923 ; perimeter
G1 X123.598 Y152.282 E0.00967 ; perimeter
G1 X123.393 Y152.413 E0.00764 ; perimeter
G1 X123.139 Y152.683 E0.01161 ; perimeter
G1 X123.015 Y152.902 E0.00788 ; perimeter
G1 X122.975 Y153.020 E0.00392 ; perimeter
G1 X122.907 Y152.939 F10800.000 ; move inwards before travel
G1 F8640
G1 X122.859 Y152.967 E-0.02943 ; wipe and retract
G1 X122.745 Y152.759 E-0.05469 ; wipe and retract
G1 X122.672 Y152.527 E-0.05630 ; wipe and retract
G1 X122.455 Y149.852 E-0.61958 ; wipe and retract
G1 E-0.04000 F2100.00000 ; retract
G1 Z0.800 F10800.000 ; lift Z
G1 X123.052 Y151.147 ; move to first infill point
G1 Z0.200 ; restore layer Z
G1 E0.80000 F2100.00000 ; unretract
G1 F1200
G1 X123.522 Y151.618 E0.02184 ; infill
G1 X123.804 Y151.538 E0.00960 ; infill
G1 X124.001 Y151.538 E0.00647 ; infill
G1 X123.188 Y150.725 E0.03775 ; infill
G1 X123.138 Y150.118 E0.02000 ; infill
G1 X124.559 Y151.538 E0.06594 ; infill
G1 X125.117 Y151.538 E0.01832 ; infill
G1 X123.536 Y149.957 E0.07338 ; infill
G1 X123.740 Y149.892 E0.00704 ; infill
G1 X123.925 Y149.788 E0.00696 ; infill
G1 X125.675 Y151.538 E0.08123 ; infill
G1 X126.187 Y151.538 E0.01679 ; infill
G1 X126.250 Y151.555 E0.00213 ; infill
G1 X124.247 Y149.552 E0.09295 ; infill
G1 X124.341 Y149.472 E0.00406 ; infill
G1 X124.509 Y149.256 E0.00898 ; infill
G1 X126.758 Y151.505 E0.10437 ; infill
G1 X126.798 Y150.986 E0.01705 ; infill
G1 X124.712 Y148.901 E0.09682 ; infill
G1 X124.843 Y148.473 E0.01467 ; infill
G1 X126.996 Y150.626 E0.09995 ; infill
G1 F8640
G1 X124.843 Y148.473 E-0.70319 ; wipe and retract
G1 X124.771 Y148.708 E-0.05681 ; wipe and retract
G1 E-0.04000 F2100.00000 ; retract
G1 Z0.800 F10800.000 ; lift Z
G1 X127.185 Y145.641 ; move to first perimeter point
G1 Z0.200 ; restore layer Z
G1 E0.80000 F2100.00000 ; unretract
G1 F1200
G1 X126.880 Y145.287 E0.01466 ; perimeter
G1 X126.535 Y145.062 E0.01289 ; perimeter
G1 X126.154 Y144.957 E0.01240 ; perimeter
G1 X123.783 Y144.961 E0.07436 ; perimeter
G1 X123.371 Y145.108 E0.01371 ; perimeter
G1 X123.043 Y145.365 E0.01306 ; perimeter
G1 X122.815 Y145.643 E0.01127 ; perimeter
G1 X122.644 Y145.465 E0.00772 ; perimeter
G1 X122.530 Y145.246 E0.00774 ; perimeter
G1 X122.471 Y145.062 E0.00607 ; perimeter
G1 X122.436 Y144.819 E0.00769 ; perimeter
G1 X122.239 Y142.270 E0.08017 ; perimeter
G1 X123.036 Y142.269 E0.02498 ; perimeter
G1 X123.320 Y142.240 E0.00895 ; perimeter
G1 X123.613 Y142.148 E0.00962 ; perimeter
G1 X123.887 Y141.996 E0.00982 ; perimeter
G1 X124.125 Y141.796 E0.00976 ; perimeter
G1 X124.323 Y141.551 E0.00988 ; perimeter
G1 X124.471 Y141.263 E0.01014 ; perimeter
G1 X124.558 Y140.967 E0.00967 ; perimeter
G1 X124.587 Y140.610 E0.01125 ; perimeter
G1 X125.413 Y140.610 E0.02590 ; perimeter
G1 X125.442 Y140.967 E0.01124 ; perimeter
G1 X125.529 Y141.262 E0.00966 ; perimeter
G1 X125.674 Y141.545 E0.00997 ; perimeter
G1 X125.874 Y141.795 E0.01004 ; perimeter
G1 X126.105 Y141.990 E0.00947 ; perimeter
G1 X126.386 Y142.148 E0.01011 ; perimeter
G1 X126.689 Y142.242 E0.00993 ; perimeter
G1 X126.972 Y142.270 E0.00892 ; perimeter
G1 X127.760 Y142.270 E0.02471 ; perimeter
G1 X127.551 Y144.930 E0.08367 ; perimeter
G1 X127.511 Y145.127 E0.00628 ; perimeter
G1 X127.393 Y145.406 E0.00950 ; perimeter
G1 X127.230 Y145.602 E0.00800 ; perimeter
G1 X127.141 Y146.102 F10800.000 ; move to first perimeter point
G1 F1200
G1 X127.013 Y146.133 E0.00414 ; perimeter
G1 X126.862 Y145.837 E0.01044 ; perimeter
G1 X126.631 Y145.574 E0.01096 ; perimeter
G1 X126.379 Y145.410 E0.00944 ; perimeter
G1 X126.104 Y145.334 E0.00894 ; perimeter
G1 X123.849 Y145.338 E0.07071 ; perimeter
G1 X123.555 Y145.443 E0.00976 ; perimeter
G1 X123.306 Y145.638 E0.00991 ; perimeter
G1 X123.137 Y145.839 E0.00823 ; perimeter
G1 X122.987 Y146.133 E0.01035 ; perimeter
G1 X122.916 Y146.120 E0.00227 ; perimeter
G1 X122.689 Y146.021 E0.00776 ; perimeter
G1 X122.506 Y145.882 E0.00721 ; perimeter
G1 X122.330 Y145.678 E0.00842 ; perimeter
G1 X122.181 Y145.392 E0.01012 ; perimeter
G1 X122.102 Y145.147 E0.00808 ; perimeter
G1 X122.061 Y144.860 E0.00908 ; perimeter
G1 X121.832 Y141.893 E0.09332 ; perimeter
G1 X123.017 Y141.892 E0.03714 ; perimeter
G1 X123.243 Y141.869 E0.00714 ; perimeter
G1 X123.463 Y141.800 E0.00724 ; perimeter
G1 X123.672 Y141.684 E0.00748 ; perimeter
G1 X123.854 Y141.531 E0.00746 ; perimeter
G1 X124.006 Y141.344 E0.00755 ; perimeter
G1 X124.120 Y141.122 E0.00780 ; perimeter
G1 X124.187 Y140.895 E0.00744 ; perimeter
G1 X124.210 Y140.665 E0.00722 ; perimeter
G1 X124.210 Y140.233 E0.01357 ; perimeter
G1 X125.790 Y140.233 E0.04954 ; perimeter
G1 X125.790 Y140.659 E0.01336 ; perimeter
G1 X125.814 Y140.894 E0.00743 ; perimeter
G1 X125.880 Y141.122 E0.00744 ; perimeter
G1 X125.992 Y141.339 E0.00764 ; perimeter
G1 X126.146 Y141.530 E0.00770 ; perimeter
G1 X126.321 Y141.679 E0.00720 ; perimeter
G1 X126.536 Y141.799 E0.00775 ; perimeter
G1 X126.764 Y141.871 E0.00748 ; perimeter
G1 X126.990 Y141.893 E0.00711 ; perimeter
G1 X128.168 Y141.893 E0.03693 ; perimeter
G1 X127.925 Y144.983 E0.09718 ; perimeter
G1 X127.873 Y145.239 E0.00819 ; perimeter
G1 X127.723 Y145.594 E0.01209 ; perimeter
G1 X127.555 Y145.821 E0.00885 ; perimeter
G1 X127.352 Y145.994 E0.00835 ; perimeter
G1 X127.194 Y146.074 E0.00556 ; perimeter
G1 X127.039 Y146.018 F10800.000 ; move inwards before travel
G1 F8640
G1 X127.013 Y146.133 E-0.04405 ; wipe and retract
G1 X126.862 Y145.837 E-0.07687 ; wipe and retract
G1 X126.631 Y145.574 E-0.08070 ; wipe and retract
G1 X126.379 Y145.410 E-0.06950 ; wipe and retract
G1 X126.104 Y145.334 E-0.06586 ; wipe and retract
