; generated by PrusaSlicer 2.0.0+win64 on 2019-09-10 at 19:54:55

; 

; external perimeters extrusion width = 0.45mm
; perimeters extrusion width = 0.45mm
; infill extrusion width = 0.45mm
; solid infill extrusion width = 0.45mm
; top infill extrusion width = 0.40mm
; first layer extrusion width = 0.42mm

M73 P0 R1
M73 Q0 S1
M201 X1000 Y1000 Z1000 E5000 ; sets maximum accelerations, mm/sec^2
M203 X200 Y200 Z12 E120 ; sets maximum feedrates, mm/sec
M204 P1250 R1250 T1250 ; sets acceleration (P, T) and retract acceleration (R), mm/sec^2
M205 X8.00 Y8.00 Z0.40 E1.50 ; sets the jerk limits, mm/sec
M205 S0 T0 ; sets the minimum extruding and travel feed rate, mm/sec
M107 ; disable fan
M115 U3.7.2 ; tell printer latest fw version
G90 ; use absolute coordinates
M83 ; extruder relative mode
M104 S215 ; set extruder temp
M140 S60 ; set bed temp
M190 S60 ; wait for bed temp
M109 S215 ; wait for extruder temp
G28 W ; home all without mesh bed level
G80 ; mesh bed leveling
G1 Y-3.0 F1000.0 ; go outside print area
G92 E0.0
G1 X60.0 E9.0 F1000.0 ; intro line
G1 X100.0 E12.5 F1000.0 ; intro line
G92 E0.0
M221 S95
M900 K30 ; Filament gcode
G21 ; set units to millimeters
G90 ; use absolute coordinates
M83 ; use relative distances for extrusion
;BEFORE_LAYER_CHANGE
G92 E0.0
;0.2


G1 E-0.80000 F2100.00000 ; retract
G1 Z0.600 F10800.000 ; lift Z
;AFTER_LAYER_CHANGE
;0.2
G1 X120.587 Y100.587 ; move to first perimeter point
G1 Z0.200 ; restore layer Z
G1 E0.80000 F2100.00000 ; unretract
M204 S1000 ; adjust acceleration
G1 F900
G1 X129.413 Y100.587 E0.27673 ; perimeter
G1 X129.413 Y109.413 E0.27673 ; perimeter
G1 X120.587 Y109.413 E0.27673 ; perimeter
G1 X120.587 Y100.647 E0.27485 ; perimeter
G1 X120.210 Y100.210 F10800.000 ; move to first perimeter point
G1 F900
G1 X129.790 Y100.210 E0.30037 ; perimeter
G1 X129.790 Y109.790 E0.30037 ; perimeter
G1 X120.210 Y109.790 E0.30037 ; perimeter
G1 X120.210 Y100.270 E0.29849 ; perimeter
G1 X120.596 Y100.314 F10800.000 ; move inwards before travel
G1 F8640
G1 X123.501 Y100.249 E-0.76000 ; wipe and retract
G1 E-0.04000 F2100.00000 ; retract
G1 Z0.800 F10800.000 ; lift Z
G1 X121.472 Y109.300 ; move to first infill point
G1 Z0.200 ; restore layer Z
G1 E0.80000 F2100.00000 ; unretract
G1 F900
G1 X120.870 Y108.698 E0.02704 ; infill
G1 X120.870 Y108.158 E0.01713 ; infill
G1 X121.842 Y109.130 E0.04365 ; infill
G1 X122.382 Y109.130 E0.01713 ; infill
G1 X120.870 Y107.618 E0.06788 ; infill
G1 X120.870 Y107.078 E0.01713 ; infill
G1 X122.922 Y109.130 E0.09211 ; infill
G1 X123.462 Y109.130 E0.01713 ; infill
G1 X120.870 Y106.538 E0.11635 ; infill
G1 X120.870 Y105.998 E0.01713 ; infill
G1 X124.002 Y109.130 E0.14058 ; infill
G1 X124.541 Y109.130 E0.01713 ; infill
G1 X120.870 Y105.459 E0.16481 ; infill
G1 X120.870 Y104.919 E0.01713 ; infill
G1 X125.081 Y109.130 E0.18904 ; infill
G1 X125.621 Y109.130 E0.01713 ; infill
G1 X120.870 Y104.379 E0.21327 ; infill
G1 X120.870 Y103.839 E0.01713 ; infill
G1 X126.161 Y109.130 E0.23750 ; infill
G1 X126.701 Y109.130 E0.01713 ; infill
G1 X120.870 Y103.299 E0.26174 ; infill
G1 X120.870 Y102.759 E0.01713 ; infill
G1 X127.241 Y109.130 E0.28597 ; infill
G1 X127.780 Y109.130 E0.01713 ; infill
G1 X120.870 Y102.220 E0.31020 ; infill
G1 X120.870 Y101.680 E0.01713 ; infill
G1 X128.320 Y109.130 E0.33443 ; infill
G1 X128.860 Y109.130 E0.01713 ; infill
G1 X120.870 Y101.140 E0.35866 ; infill
G1 X120.870 Y100.870 E0.00857 ; infill
G1 X121.140 Y100.870 E0.00857 ; infill
G1 X129.130 Y108.860 E0.35867 ; infill
G1 X129.130 Y108.320 E0.01713 ; infill
G1 X121.680 Y100.870 E0.33444 ; infill
G1 X122.219 Y100.870 E0.01713 ; infill
G1 X129.130 Y107.781 E0.31021 ; infill
G1 X129.130 Y107.241 E0.01713 ; infill
G1 X122.759 Y100.870 E0.28597 ; infill
G1 X123.299 Y100.870 E0.01713 ; infill
G1 X129.130 Y106.701 E0.26174 ; infill
G1 X129.130 Y106.161 E0.01713 ; infill
G1 X123.839 Y100.870 E0.23751 ; infill
G1 X124.379 Y100.870 E0.01713 ; infill
G1 X129.130 Y105.621 E0.21328 ; infill
G1 X129.130 Y105.081 E0.01713 ; infill
G1 X124.919 Y100.870 E0.18905 ; infill
G1 X125.458 Y100.870 E0.01713 ; infill
G1 X129.130 Y104.542 E0.16481 ; infill
G1 X129.130 Y104.002 E0.01713 ; infill
G1 X125.998 Y100.870 E0.14058 ; infill
G1 X126.538 Y100.870 E0.01713 ; infill
G1 X129.130 Y103.462 E0.11635 ; infill
G1 X129.130 Y102.922 E0.01713 ; infill
G1 X127.078 Y100.870 E0.09212 ; infill
G1 X127.618 Y100.870 E0.01713 ; infill
G1 X129.130 Y102.382 E0.06789 ; infill
G1 X129.130 Y101.842 E0.01713 ; infill
G1 X128.158 Y100.870 E0.04366 ; infill
G1 X128.697 Y100.870 E0.01713 ; infill
G1 X129.300 Y101.472 E0.02704 ; infill
G1 F8640;_WIPE
G1 X128.697 Y100.870 E-0.19672 ; wipe and retract
G1 F8640;_WIPE
G1 X128.158 Y100.870 E-0.12465 ; wipe and retract
G1 F8640;_WIPE
G1 X129.130 Y101.842 E-0.31759 ; wipe and retract
G1 F8640;_WIPE
G1 X129.130 Y102.367 E-0.12104 ; wipe and retract
G1 E-0.04000 F2100.00000 ; retract
G1 Z0.800 F10800.000 ; lift Z
; Filament-specific end gcode
G4 ; wait
M221 S100
M104 S0 ; turn off temperature
M140 S0 ; turn off heatbed
M107 ; turn off fan
G1 Z30.8 ; Move print head up
G1 X0 Y200 F3000 ; home X axis
M84 ; disable motors
M73 P100 R0
M73 Q100 S0
; filament used [mm] = 8.5
; filament used [cm3] = 0.0
; filament used [g] = 0.0
; filament cost = 0.0
; total filament used [g] = 0.0
; total filament cost = 0.0
; estimated printing time (normal mode) = 31s
; estimated printing time (silent mode) = 32s

; avoid_crossing_perimeters = 0
; bed_shape = 0x0,250x0,250x210,0x210
; bed_temperature = 60
; before_layer_gcode = ;BEFORE_LAYER_CHANGE\nG92 E0.0\n;[layer_z]\n\n
; between_objects_gcode = 
; bridge_acceleration = 1000
; bridge_fan_speed = 100
; brim_width = 0
; colorprint_heights = 
; complete_objects = 0
; cooling = 1
; cooling_tube_length = 5
; cooling_tube_retraction = 91.5
; default_acceleration = 1000
; deretract_speed = 0
; disable_fan_first_layers = 1
; duplicate_distance = 6
; end_filament_gcode = "; Filament-specific end gcode"
; end_gcode = G4 ; wait\nM221 S100\nM104 S0 ; turn off temperature\nM140 S0 ; turn off heatbed\nM107 ; turn off fan\n{if layer_z < max_print_height}G1 Z{z_offset+min(layer_z+30, max_print_height)}{endif} ; Move print head up\nG1 X0 Y200 F3000 ; home X axis\nM84 ; disable motors
; extra_loading_move = -2
; extruder_clearance_height = 25
; extruder_clearance_radius = 45
; extruder_colour = #FFFF00
; extruder_offset = 0x0
; extrusion_axis = E
; extrusion_multiplier = 1
; fan_always_on = 1
; fan_below_layer_time = 100
; filament_colour = #FF3232
; filament_cooling_final_speed = 3.4
; filament_cooling_initial_speed = 2.2
; filament_cooling_moves = 4
; filament_cost = 24.99
; filament_density = 1.24
; filament_diameter = 1.75
; filament_load_time = 0
; filament_loading_speed = 28
; filament_loading_speed_start = 3
; filament_max_volumetric_speed = 15
; filament_minimal_purge_on_wipe_tower = 15
; filament_notes = "Affordable filament for everyday printing in premium quality manufactured in-house by Josef Prusa"
; filament_ramming_parameters = "120 100 6.6 6.8 7.2 7.6 7.9 8.2 8.7 9.4 9.9 10.0| 0.05 6.6 0.45 6.8 0.95 7.8 1.45 8.3 1.95 9.7 2.45 10 2.95 7.6 3.45 7.6 3.95 7.6 4.45 7.6 4.95 7.6"
; filament_soluble = 0
; filament_toolchange_delay = 0
; filament_type = PLA
; filament_unload_time = 0
; filament_unloading_speed = 90
; filament_unloading_speed_start = 100
; first_layer_acceleration = 1000
; first_layer_bed_temperature = 60
; first_layer_extrusion_width = 0.42
; first_layer_speed = 20
; first_layer_temperature = 215
; gcode_comments = 1
; gcode_flavor = marlin
; gcode_label_objects = 0
; high_current_on_filament_swap = 0
; infill_acceleration = 1250
; infill_first = 0
; layer_gcode = ;AFTER_LAYER_CHANGE\n;[layer_z]
; machine_max_acceleration_e = 5000,5000
; machine_max_acceleration_extruding = 1250,1250
; machine_max_acceleration_retracting = 1250,1250
; machine_max_acceleration_x = 1000,960
; machine_max_acceleration_y = 1000,960
; machine_max_acceleration_z = 1000,1000
; machine_max_feedrate_e = 120,120
; machine_max_feedrate_x = 200,100
; machine_max_feedrate_y = 200,100
; machine_max_feedrate_z = 12,12
; machine_max_jerk_e = 1.5,1.5
; machine_max_jerk_x = 8,8
; machine_max_jerk_y = 8,8
; machine_max_jerk_z = 0.4,0.4
; machine_min_extruding_rate = 0,0
; machine_min_travel_rate = 0,0
; max_fan_speed = 100
; max_layer_height = 0.25
; max_print_height = 210
; max_print_speed = 200
; max_volumetric_speed = 0
; min_fan_speed = 100
; min_layer_height = 0.07
; min_print_speed = 15
; min_skirt_length = 4
; notes = 
; nozzle_diameter = 0.4
; only_retract_when_crossing_perimeters = 0
; ooze_prevention = 0
; output_filename_format = {input_filename_base}_{layer_height}mm_{filament_type[0]}_{printer_model}_{print_time}.gcode
; parking_pos_retraction = 92
; perimeter_acceleration = 800
; post_process = 
; printer_model = MK3S
; printer_notes = Don't remove the following keywords! These keywords are used in the "compatible printer" condition of the print and filament profiles to link the particular print and filament profiles to this printer profile.\nPRINTER_VENDOR_PRUSA3D\nPRINTER_MODEL_MK3\n
; remaining_times = 1
; resolution = 0
; retract_before_travel = 1
; retract_before_wipe = 0%
; retract_layer_change = 1
; retract_length = 0.8
; retract_length_toolchange = 4
; retract_lift = 0.6
; retract_lift_above = 0
; retract_lift_below = 209
; retract_restart_extra = 0
; retract_restart_extra_toolchange = 0
; retract_speed = 35
; silent_mode = 1
; single_extruder_multi_material = 0
; single_extruder_multi_material_priming = 0
; skirt_distance = 2
; skirt_height = 3
; skirts = 0
; slowdown_below_layer_time = 20
; spiral_vase = 0
; standby_temperature_delta = -5
; start_filament_gcode = "M900 K{if printer_notes=~/.*PRINTER_HAS_BOWDEN.*/}200{elsif nozzle_diameter[0]==0.6}18{else}30{endif} ; Filament gcode"
; start_gcode = M115 U3.7.2 ; tell printer latest fw version\nG90 ; use absolute coordinates\nM83 ; extruder relative mode\nM104 S[first_layer_temperature] ; set extruder temp\nM140 S[first_layer_bed_temperature] ; set bed temp\nM190 S[first_layer_bed_temperature] ; wait for bed temp\nM109 S[first_layer_temperature] ; wait for extruder temp\nG28 W ; home all without mesh bed level\nG80 ; mesh bed leveling\nG1 Y-3.0 F1000.0 ; go outside print area\nG92 E0.0\nG1 X60.0 E9.0 F1000.0 ; intro line\nG1 X100.0 E12.5 F1000.0 ; intro line\nG92 E0.0\nM221 S{if layer_height<0.075}100{else}95{endif}
; temperature = 215
; threads = 8
; toolchange_gcode = 
; travel_speed = 180
; use_firmware_retraction = 0
; use_relative_e_distances = 1
; use_volumetric_e = 0
; variable_layer_height = 1
; wipe = 1
; wipe_tower = 1
; wipe_tower_bridging = 10
; wipe_tower_rotation_angle = 0
; wipe_tower_width = 60
; wipe_tower_x = 170
; wipe_tower_y = 125
; wiping_volumes_extruders = 70,70
; wiping_volumes_matrix = 0
; z_offset = 0
; clip_multipart_objects = 1
; dont_support_bridges = 1
; elefant_foot_compensation = 0
; extrusion_width = 0.45
; first_layer_height = 0.2
; infill_only_where_needed = 0
; interface_shells = 0
; layer_height = 0.15
; raft_layers = 0
; seam_position = nearest
; slice_closing_radius = 0.049
; support_material = 0
; support_material_angle = 0
; support_material_auto = 1
; support_material_buildplate_only = 0
; support_material_contact_distance = 0.1
; support_material_enforce_layers = 0
; support_material_extruder = 0
; support_material_extrusion_width = 0.35
; support_material_interface_contact_loops = 0
; support_material_interface_extruder = 0
; support_material_interface_layers = 2
; support_material_interface_spacing = 0.2
; support_material_interface_speed = 100%
; support_material_pattern = rectilinear
; support_material_spacing = 2
; support_material_speed = 50
; support_material_synchronize_layers = 0
; support_material_threshold = 55
; support_material_with_sheath = 0
; support_material_xy_spacing = 50%
; wipe_into_objects = 0
; xy_size_compensation = 0
; bottom_fill_pattern = rectilinear
; bottom_solid_layers = 5
; bridge_angle = 0
; bridge_flow_ratio = 0.8
; bridge_speed = 30
; ensure_vertical_shell_thickness = 1
; external_perimeter_extrusion_width = 0.45
; external_perimeter_speed = 25
; external_perimeters_first = 0
; extra_perimeters = 0
; fill_angle = 45
; fill_density = 15%
; fill_pattern = gyroid
; gap_fill_speed = 40
; infill_every_layers = 1
; infill_extruder = 1
; infill_extrusion_width = 0.45
; infill_overlap = 25%
; infill_speed = 80
; overhangs = 0
; perimeter_extruder = 1
; perimeter_extrusion_width = 0.45
; perimeter_speed = 45
; perimeters = 2
; small_perimeter_speed = 25
; solid_infill_below_area = 0
; solid_infill_every_layers = 0
; solid_infill_extruder = 1
; solid_infill_extrusion_width = 0.45
; solid_infill_speed = 80
; thin_walls = 0
; top_fill_pattern = rectilinear
; top_infill_extrusion_width = 0.4
; top_solid_infill_speed = 40
; top_solid_layers = 7
; wipe_into_infill = 0
; print_settings_id = 0.15mm QUALITY MK3 - Copy
; filament_settings_id = "Prusament PLA"
; printer_settings_id = Original Prusa i3 MK3S
; printer_model = MK3S
; printer_variant = 0.4
; default_print_profile = 0.15mm QUALITY MK3
; default_filament_profile = "Prusament PLA"
; compatible_printers_condition_cummulative = "printer_notes=~/.*PRINTER_VENDOR_PRUSA3D.*/ and printer_notes=~/.*PRINTER_MODEL_MK3.*/ and nozzle_diameter[0]==0.4";"! (printer_notes=~/.*PRINTER_VENDOR_PRUSA3D.*/ and printer_notes=~/.*PRINTER_MODEL_MK(2.5|3).*/ and single_extruder_multi_material)"
; inherits_cummulative = "0.15mm QUALITY MK3";;
